X:1
T:Seeds of Promise
T:Seeds of Promise
T:Frederick Augustus Fillmore
T:Jessie H. Brown Pounds, 1887
T:Public Domain Courtesy of the Cyber Hymnal™
T:Public Domain Courtesy of the Cyber Hymnal™
C:Frederick Augustus Fillmore
Z:Public Domain
Z:Courtesy of the Cyber Hymnal™
%%score ( 1 2 ) ( 3 4 )
L:1/8
Q:1/4=112
M:9/8
K:Ab
V:1 treble 
V:2 treble 
V:3 bass 
V:4 bass 
V:1
 E3 | (EF)[CG] [CA]3 [EB]3 | [Ec]2 [EA] [DF]3 [FB]3 | [EB]2 [EG] [DF]3 [DG]3 | %4
w: 1.~Oh,|scat- * ter seeds of|lov- ing deeds A-|long the fer- tile|
w: 2.~Tho’|sown * in tears thro’|wea- ry years, The|seed will sure- ly|
w: 3.~The|har- * vest home of|God will come, And|af- ter toil and|
 ([CA]3 [EG]3) [DF]3 | (EF)[CG] [CA]3 [EB]3 | [Ec]2 [EA] [DF]3 [FB]3 | [EA]2 [EG] [DF]3 [DG]3 | %8
w: field, * For|grain * will grow from|what you sow, And|fruit- ful har- vest|
w: live; * Tho’|great * the cost, it|is not lost, For|God will fruit- age|
w: care; * With|joy * un- told your|sheaves of gold Will|all be gar- nered|
 [CA]3- [CA]2 ||[M:12/8]"^Refrain" E (EG) B | (z2 [Ed]2) G A2 c x4 | z2 _E3- [CE]2 E (E G)B x | %12
w: yield. *|Then day * by|* day a- long|* your way, The * seeds|
w: give. *||||
w: there. *||||
 z2 d3 (E e3) x6 | c6- [Ec]2 B d2 d | z2 [DF]2 d c2 c x4 | z2 [CE]2 E (E A)c x4 | z2 e3 G3 x8 | %17
w: * of *|pro- mise cast, * That|* rip- ened grain,|* from hill * and|* plain,|
w: |||||
w: |||||
 A6 [EA]3 |] %18
w: Be ga-|
w: |
w: |
V:2
 E3 | C2 x7 | x9 | x9 | x9 | C3 x6 | x9 | x9 | x5 ||[M:12/8] x4 | d6- E E2 E x2 | E3- E- _E2 D x5 | %12
 (d6- G G2 G G2 G2) E | E2 E E2 E x6 | F6- D D2 D x2 | E6- E- E2- D x2 | (e6 A A2 A G2 E) (E2 E) | %17
 E2 E F2 F x3 |] %18
V:3
 E,3 | [A,,A,]2 [A,,A,] [A,,A,]3 [E,G,]3 | A,2 [C,A,] [D,A,]3 [D,D]3 | %3
w: ~|~ ~ ~ ~|~ ~ ~ ~|
 [E,C]2 [E,B,] [E,B,]3 [E,B,]3 | [A,,A,]6 [A,,A,]3 | [A,,A,]2 [A,,A,] [A,,A,]3 [E,G,]3 | %6
w: ~ ~ ~ ~|~ ~|~ ~ ~ ~|
 A,2 [C,A,] [D,A,]3 [B,,D]3 | [E,C]2 [E,B,] [E,B,]3 [E,B,]3 | [A,,A,]3- [A,,A,]2 ||[M:12/8] z4 | %10
w: ~ ~ ~ ~|~ ~ ~ ~|~ *||
 z2 [E,G,] [E,G,]2 [E,G,] [E,G,]2 z4 | z2 [C,A,] [C,A,]2 [B,,G,] [G,,A,]2 z4 | %12
w: Then day by day,|a- long your way,|
 z2 [E,B,] [E,B,]2 [E,B,] [E,B,]2 [E,B,] [E,B,]2 [E,G,] x3 | A,2 A, A,2 A, A,2 z4 | %14
w: The seeds or prom- ise cast, the|seeds of prom- ise cast,|
 z2 [D,A,] [D,A,]2 [D,A,] [D,A,]2 z4 | z2 [C,A,] [C,A,]2 [B,,G,] [A,,A,]2 z4 | %16
w: That rip- ened grain,|from hill and plain,|
 z2 [E,C] [E,C]2 [E,C] B,2 G, B,2 D x4 | C2 C D2 D [A,,C]3 |] %18
w: Be ga- thered home at last, be|ga- thered home at last.|
V:4
 E,3 | x9 | A,2 x7 | x9 | x9 | x9 | A,2 x7 | x9 | x5 ||[M:12/8] x4 | x12 | x12 | x15 | %13
 A,2 A, A,2 A, A,2 x4 | x12 | x12 | x6 E,3 E,3 x4 | A,,6- x3 |] %18

